X:1
T:4 Lieder, Op.11
T:Wanderlied
T:4 Lieder, Op.11
T:Clara Faisst
T:1. Wanderlied
T:Max Geissler
T:Creative Commons copyright waiver (CC0 1.0 Universal)
T:Creative Commons copyright waiver (CC0 1.0 Universal)
C:Clara Faisst
Z:Max Geissler
Z:Creative Commons copyright waiver (CC0 1.0 Universal)
%%score ( 1 2 ) { ( 3 5 ) | 4 }
L:1/8
Q:1/4=140
M:2/4
K:D
V:1 treble nm="Voice\nGesang"
V:2 treble 
V:3 treble nm="Piano"
V:5 treble 
V:4 bass 
V:1
"^Lebhafter Vortrag" B c | d2 c2 | d2 c B | A2 ^G G | F2 d c | d3/2 d/ e c | A2 c d | c2 c c | %8
w: Auf dem|Herd kein|Feu- er, kein|Röss- lein zum|Ritt, kei- ne|Si- chel, kei- ne|Scheu- er, drum|ernt' ich auch|
 f2 z2 | z4 | z2 (c^d) | ^e2 ^d c | ^G3/2 G/ c ^e | f2 ^e ^d | ^e2 z2 | z4 | z2 c c | %17
w: nit.||Der  _|Fink sitzt im|Flie- der wenn die|Schwarz- bee- re|schwillt,||und der|
 c3/2 c/ ^d ^e | f2 c ^A | ^G c ^d G | ^g2 x2 | f3/2 F/ ^G!<(! ^A | B2 c!<)! ^d | %23
w: Spiel- mann und die|Lie- der, die|wach- sen bei- de||Spiel- mann und die|Lie- der, die|
!f! e"^rit."[Q:1/4=120] (f/e/) !fermata!^d3/2 c/ |[Q:1/4=140] B3 z | z4 | z4 | z4 | !fermata!z4 |] %29
w: wach- sen * bei- de|wild.|||||
V:2
 x2 | x4 | x4 | x4 | x4 | x4 | x4 | x4 | x4 | x4 | x4 | x4 | x4 | x4 | x4 | x4 | x4 | x4 | x4 | %19
w: |||||||||||||||||||
 x4 | ^e2 z ^e | x4 | x4 | x4 | x4 | x4 | x4 | x4 | x4 |] %29
w: |wild, der|||||||||
V:3
!mf! z2 | z .[DFd] z .[CFc] | z [DFd] .[EFc].[DFB] | z [CFA] z [C^E^G] | z .[A,CF] [Afa][Aea] | %5
 z [Ada] z [Aca] | z [Ada] [Aca][Adfa] | z [cf^a] z [c^e^g] | z [^Acf] z [FAc] | %9
 z [^E^Gc] z [EBc] |!<(! [F^Ac] z({f^g)} .^a!<)!!p!.[^B^dg] | !trill(!T^g4 | !trill(!T^g4 | ^g4 | %14
!<(! [c^g] z({ab)} .[ac']!<)!.[fa] | !>![d'f']2!>(! .[c'e'].[bd'] | [ac']2!>)! z2 | %17
 z .[^E^GBc] z .[EBc] | z .[F^Ac] z .[Fcf] |!<(! (^ef/e/ .^d)!<)!.^G |!f! ^g4 | %21
 z [^Af^a] z [A=efa] | z [B^dfb] z [Bfb] |!f! z"_rit." [Be^gb] z [^Aef^a] | %24
!f!"_a tempo" z .[B^dfb] z .[dfb] | z .[FBf] z .[FB^df] | .[Be^g] z z2 | .[EF^A] z z2 | %28
 z!f! !fermata![^dfb]3 |] %29
V:4
 .B,,.F, | .B,2 .^A,2 | B,2 .^A,.B, | .C2 .C,2 | F,2[I:staff -1] D=E | .F2 .E2 | F2 ED | C2 C2 | %8
[I:staff +1] !>!F2 .C.^D | C2 .C,.C, | .F,2 z ^G, |[K:treble] .C.^G.^E.G | .C.^G.^E.G | %13
 .^G,.F.^D.F | .C.[^E^G] .F,.[FA] | .=E,.[^Gd] .E.[Gd] | .A,.[EA] .C.[EA] | %17
[K:bass] (C,C/B,/) .^A,.^G, | F,2 .^G,.^A, | ^G,[C^E] G,[^B,F] | .C,(^E/^D/ .C).=B, | %21
 ([F,^A,]=E).^D.C | B,2 .C.^D | .E2 .F2 |[K:treble] (B,B/^A/) .^G.F | .E.^D.C.B, | %26
[K:bass] .E, z z2 | .F, z z2 | z{/B,,} B,3 |] %29
V:5
 x2 | x4 | x4 | x4 | x4 | x4 | x4 | x4 | x4 | x4 | x4 | ^e2 !trill)!c2 | ^e2 c2 | %13
 ^d2 !trill)!.c.^B | x4 | x4 | x4 | x4 | x4 | x4 | z [^Gc] z [Gc^e] | x4 | x4 | x4 | x4 | x4 | x4 | %27
 x4 | x [FB]3 |] %29

